assets/img/braze_icons/shield-03.svg

<svg fill="none" height="24" viewBox="0 0 24 24" width="24" xmlns="http://www.w3.org/2000/svg"><g fill="#801ed7"><path d="m11 2.46158c0-.38786 0-.58179-.0815-.70643-.0712-.10903-.1822-.18596-.3093-.2144-.1453-.03251-.3269.03558-.69008.17176l-4.32446 1.62156c-.61779.23065-1.16033.43321-1.57815.80143-.36552.32212-.64708.72841-.82035 1.18376-.19807.52051-.19723 1.09963-.19627 1.75907l.00013 4.92187c0 2.8266 1.53729 5.1832 3.19906 6.9144 1.079 1.1241 2.31642 2.1408 3.64027 2.9907.35365.227.53055.3406.69645.3286.1398-.01.2805-.0869.3645-.1991.0997-.1332.0997-.3522.0997-.7902z"/><path d="m13 21.2447c0 .4379 0 .6569.0997.7901.084.1122.2247.1891.3645.1992.1659.0119.3428-.1016.6964-.3287 1.3239-.8499 2.5613-1.8666 3.6404-2.9907 1.6617-1.7312 3.199-4.0878 3.199-6.9144l.0002-4.92187c.0009-.65945.0017-1.23856-.1963-1.75907-.1733-.45535-.4549-.86164-.8204-1.18376-.4178-.36822-.9603-.57078-1.5781-.80143l-4.3245-1.62158c-.3632-.13617-.5448-.20426-.6901-.17175-.1271.02844-.2381.10536-.3093.2144-.0815.12464-.0815.31857-.0815.70642z"/></g></svg>

<svg width="24" height="24" viewBox="0 0 24 24" fill="none" xmlns="http://www.w3.org/2000/svg">
<path d="M11 2.46158C11 2.07372 11 1.87979 10.9185 1.75515C10.8473 1.64612 10.7363 1.56919 10.6092 1.54075C10.4639 1.50824 10.2823 1.57633 9.91912 1.71251L5.59466 3.33407C4.97687 3.56472 4.43433 3.76728 4.01651 4.1355C3.65099 4.45762 3.36943 4.86391 3.19616 5.31926C2.99809 5.83977 2.99893 6.41889 2.99989 7.07833L3.00002 12.0002C3.00002 14.8268 4.53731 17.1834 6.19908 18.9146C7.27808 20.0387 8.5155 21.0554 9.83935 21.9053C10.193 22.1323 10.3699 22.2459 10.5358 22.2339C10.6756 22.2239 10.8163 22.147 10.9003 22.0348C11 21.9016 11 21.6826 11 21.2446L11 2.46158Z" fill="#801ED7"/>
<path d="M13 21.2447C13 21.6826 13 21.9016 13.0997 22.0348C13.1837 22.147 13.3244 22.2239 13.4642 22.234C13.6301 22.2459 13.807 22.1324 14.1606 21.9053C15.4845 21.0554 16.7219 20.0387 17.801 18.9146C19.4627 17.1834 21 14.8268 21 12.0002L21.0002 7.07833C21.0011 6.41888 21.0019 5.83977 20.8039 5.31926C20.6306 4.86391 20.349 4.45762 19.9835 4.1355C19.5657 3.76728 19.0232 3.56472 18.4054 3.33407L14.0809 1.71249C13.7177 1.57632 13.5361 1.50823 13.3908 1.54074C13.2637 1.56918 13.1527 1.6461 13.0815 1.75514C13 1.87978 13 2.07371 13 2.46156L13 21.2447Z" fill="#801ED7"/>
</svg>
